src/assets/_raw_images/003-folder.svg

<svg viewBox="0 0 512 512" xmlns="http://www.w3.org/2000/svg"><path d="m492 122h-223l-34-71c-3-7-10-11-18-11h-197c-11 0-20 9-20 20v392c0 11 9 20 20 20h472c11 0 20-9 20-20v-310c0-11-9-20-20-20zm-452-42h164l20 42h-184zm432 352h-432v-270h432z" fill="#fff"/></svg>

<svg xmlns="http://www.w3.org/2000/svg" viewBox="0 0 512 512">
	<defs/>
	<path fill="#fff" d="M492 122H269l-34-71c-3-7-10-11-18-11H20C9 40 0 49 0 60v392c0 11 9 20 20 20h472c11 0 20-9 20-20V142c0-11-9-20-20-20zM40 80h164l20 42H40V80zm432 352H40V162h432v270z"/>
</svg>
